!!!COM: Palestrina, Giovanni Perluigi da
!!!OPR: Missa Te Deum laudamus
!!!OMD: Sanctus
!!!OTL: Hosanna
**kern	**kern	**kern	**kern	**kern	**kern
*Ibass	*Itenor	*Itenor	*Icalto	*Icalto	*Icant
!Bassus	!Tenor 2	!Tenor 1	!Altus 2	!Altus 1	!Cantus
*clefF4	*clefGv2	*clefGv2	*clefG2	*clefG2	*clefG2
*k[]	*k[]	*k[]	*k[]	*k[]	*k[]
*A:aeo	*A:aeo	*A:aeo	*A:aeo	*A:aeo	*A:aeo
*M3/2	*M3/2	*M3/2	*M3/2	*M3/2	*M3/2
=77	=77	=77	=77	=77	=77
1r	1r	1r	2A	1r	2a
.	.	.	2c	.	2a
2r	2r	2r	2d	2r	2a
=78	=78	=78	=78	=78	=78
1r	1r	1r	1e	1r	2g
.	.	.	.	.	1cc
2r	2r	2r	2f	2r	.
=79	=79	=79	=79	=79	=79
1r	1r	2r	2g	1r	2b
.	.	2D	1f	.	1a
2r	2r	2F	.	2r	.
=80	=80	=80	=80	=80	=80
1r	1r	2G	1e	1r	2g
.	.	2A	.	.	1f
2r	2r	2B	2d	2r	.
=81	=81	=81	=81	=81	=81
1r	1r	2c	2e	2A	1e
.	.	2A	2a	2c	.
2r	2r	2B	[2g	2d	2r
=82	=82	=82	=82	=82	=82
1r	1r	2.c	4g]	1e	2e
.	.	.	4f	.	.
.	.	.	4e	.	2g
.	.	4B	4d	.	.
2r	2r	2A	2c	2f	2a
=83	=83	=83	=83	=83	=83
1r	1r	2G	2d	2g	2b
.	.	2A	2c	2e	2cc
2r	2r	[2D	[2d	[2f	2b
=84	=84	=84	=84	=84	=84
1r	1r	2D]	4d]	2f]	1a
.	.	.	4c	.	.
.	.	1E	1B	1e	.
2r	2r	.	.	.	2g#
=85	=85	=85	=85	=85	=85
2AA	2A	2A	2c	1e	1a
2C	2A	2r	2e	.	.
2D	2A	2r	2f	4d	2r
.	.	.	.	4c	.
=86	=86	=86	=86	=86	=86
1E	2G	1r	1e	2B	2e
.	1c	.	.	2e	2g
2F	.	2r	2c	2A	2a
=87	=87	=87	=87	=87	=87
2G	2B	2r	1r	2.d	2b
1F	1A	2D	.	.	2dd
.	.	.	.	8c	.
.	.	.	.	8B	.
.	.	2F	2r	2A	[2cc
=88	=88	=88	=88	=88	=88
2E	2G	2G	1r	2e	4cc]
.	.	.	.	.	4b
1D	1F	2A	.	1f	1dd
.	.	2B	2r	.	.
=89	=89	=89	=89	=89	=89
2C	2G	2.c	2r	1e	2g
2r	1c	.	2A	.	2a
.	.	4d	.	.	.
2r	.	2e	2c	2r	2g
=90	=90	=90	=90	=90	=90
1r	2B	2d	2d	1r	2g
.	1A	2.c	2e	.	1cc
2r	.	.	2f	2r	.
.	.	4A	.	.	.
=91	=91	=91	=91	=91	=91
1r	2G	1d	2g	1r	2b
.	1A	.	1e	.	1a
2r	.	2c#	.	2r	.
=92	=92	=92	=92	=92	=92
2D	1D	2d	2f	2d	2a
2F	.	2r	2a	2d	2a
2G	2r	2r	4g	2d	2b
.	.	.	4f	.	.
=93	=93	=93	=93	=93	=93
1A	2A	1r	2e	2c	1cc
.	2c	.	2A	1f	.
2B	2d	2r	2r	.	4b
.	.	.	.	.	4a
=94	=94	=94	=94	=94	=94
2.c	2.e	2r	1r	2e	2g
.	.	2A	.	4c	2a
4B	4d	.	.	4d	.
2A	2c	2c	2r	4e	2r
.	.	.	.	4f	.
=95	=95	=95	=95	=95	=95
2G	1B	2d	1r	1g	1r
2E	.	2e	.	.	.
2A	2A	2c	2r	2f	2r
=96	=96	=96	=96	=96	=96
2G	2B	2B	2e	1e	1r
1F	2c	1A	2a	.	.
.	2A	.	2a	2d	2r
=97	=97	=97	=97	=97	=97
1E	1r	2B	4g	[1.e	2e
.	.	.	4f	.	.
.	.	2E	4e	.	2g
.	.	.	4d	.	.
2r	2r	2A	2c	.	2a
=98	=98	=98	=98	=98	=98
2r	2E	2G	2B	1.e]	1b
2E	2G	2B	2e	.	.
2A	2A	2A	2c	.	2cc
=99	=99	=99	=99	=99	=99
1G	1B	2d	1g	2r	1dd
.	.	2.G	.	2d	.
2C	2c	.	2g	2e	2cc
.	.	4A	.	.	.
=100	=100	=100	=100	=100	=100
2GG	2d	2B	1g	2d	2b
2C	2.e	2E	.	2.c	2.cc
2AA	.	[2E	2c	.	.
.	4d	.	.	4d	4b
=101	=101	=101	=101	=101	=101
2AA	2c	2E]	2c	1e	1a
1E	1B	1E	2.e	.	.
.	.	.	.	2B	2g#
.	.	.	4d	.	.
=102	=102	=102	=102	=102	=102
1.AA	1.A	[1.E	4c	1.e	1.a
.	.	.	4B	.	.
.	.	.	1c	.	.
=103	=103	=103	=103	=103	=103
1.E	1.G#	1.E]	1.B	1.e	1.b
==	==	==	==	==	==
*-	*-	*-	*-	*-	*-
!!!CDT: 1525/^1526/-1594/2/2
!!!OCY: Italia
!!!AGN: Mass (Paraphrase)
!!!AST: renaissance, vocal
!!!ASW: Hymn
!!!PWK: Masses, Book 9
!!!RNB: Cadence finals: G,E,D
!!!YOR: Le Opere Complete, v. 25, p. 172
!!!YOO: Rome, Italy: Fratelli Scalera
!!!END: 1992//
!!!EED: John Miller
!!!YEC: Copyright 2000, John Miller
!!!YEN: United States of America
!!!YEM: Rights to all derivative electronic formats reserved.
!!!YEM: Refer to licensing agreement for further details.
!!!YEM: This file must be accompanied by the licensing agreement.
!!!YEM: A copy of the licensing agreement may be found at http://www.music-cog.ohio-state.edu/HumdrumDatabases/Palestrina/license.txt
!!!EMD: converted to Humdrum by Bret Aarden
